X:53
T:Lucy Campbell
S:Setting from Alan Ng for teaching purposes
Z: id:ng-reels-53 transcribed by Alan Ng alan@alan-ng.nospam (net) 28 Oct 2007
M:C|
K:D
dB|:AD~D2 D2dB|A2FA BE~E2|ADFA dfed|dBAF ADD2::\
dBAB dfed|dBAF BE~E2|dBAB d2fe|1dBAF ADD2:|2dBAB defg||\
a2af defg|afaf bee2|~a3f defe|dBAF EFD2|\
a3f defg|a2ab bee2|~g3e ~f3e|dBAF ADD2|]\
df~f2 dfef|df~f2 afef|dffe ~f3e|dBAF ADD2|\
df~f2 dfef|df~f2 afef|~g3e ~f3e|dBAF ADD2|]*
